apps/scalable/kopete.svg

<svg xmlns="http://www.w3.org/2000/svg" style="isolation:isolate" width="256" height="256"><defs><filter id="a" width="270.648" height="254.338" x="-7.32" y="2.95" filterUnits="userSpaceOnUse"><feGaussianBlur xmlns="http://www.w3.org/2000/svg" in="SourceGraphic" stdDeviation="4.294"/><feOffset xmlns="http://www.w3.org/2000/svg" dy="4" result="pf_100_offsetBlur"/><feFlood xmlns="http://www.w3.org/2000/svg" flood-opacity=".4"/><feComposite xmlns="http://www.w3.org/2000/svg" in2="pf_100_offsetBlur" operator="in" result="pf_100_dropShadow"/><feBlend xmlns="http://www.w3.org/2000/svg" in="SourceGraphic" in2="pf_100_dropShadow"/></filter></defs><path fill="#9B33AE" d="M165.685 11.947c74.055 0 84.639 10.557 84.639 84.544v59.251c0 73.986-10.584 84.543-84.639 84.543h-75.37c-74.055 0-84.639-10.557-84.639-84.543V96.491c0-73.987 10.584-84.544 84.639-84.544h75.37z" filter="url(#a)"/><g opacity=".4"><linearGradient id="b" x1=".517" x2=".517" y2="1"><stop offset="0%" stop-color="#fff"/><stop offset="12.5%" stop-opacity=".098" stop-color="#fff"/><stop offset="92.5%" stop-opacity=".098"/><stop offset="100%" stop-opacity=".498"/></linearGradient><path fill="none" stroke="url(#b)" stroke-linecap="round" stroke-linejoin="round" stroke-width="4.077" d="M165.685 11.947c74.055 0 84.639 10.557 84.639 84.544v59.251c0 73.986-10.584 84.543-84.639 84.543h-75.37c-74.055 0-84.639-10.557-84.639-84.543V96.491c0-73.987 10.584-84.544 84.639-84.544h75.37z" vector-effect="non-scaling-stroke"/></g><path fill="#FFF" d="M249.643 83.58L44.234 236.61c11.562 2.311 26.426 3.019 45.523 3.019h75.37c74.055 0 84.639-10.558 84.639-84.544V95.834c0-4.303-.041-8.37-.123-12.254z" opacity=".1"/><defs><filter id="c" width="213.246" height="171.597" x="21.38" y="43.07" filterUnits="userSpaceOnUse"><feGaussianBlur xmlns="http://www.w3.org/2000/svg" stdDeviation="10.766"/></filter></defs><g opacity=".2" filter="url(#c)"><linearGradient id="d" x1=".361" x2=".856" y1=".004" y2=".714" gradientTransform="matrix(163.099 0 0 121.45 46.451 68.142)" gradientUnits="userSpaceOnUse"><stop offset="0%" stop-opacity="0"/><stop offset="67.026%"/><stop offset="100%" stop-opacity="0"/></linearGradient><path fill="url(#d)" d="M65.138 68.145c-7.287-.091-12.184 1.545-14.697 4.56-2.638 3.142-3.99 8.295-3.99 15.457v65.301c0 7.161 1.352 12.314 3.99 15.455 2.513 3.016 7.409 4.562 14.697 4.562h17.307l22.825 16.111 22.826-16.111h62.766c7.288 0 12.184-1.546 14.697-4.562 2.638-3.141 3.99-8.294 3.99-15.455V88.162c0-7.162-1.352-12.315-3.99-15.457-2.513-3.015-7.409-4.56-14.697-4.56H65.138z"/></g><defs><filter id="e" width="169.367" height="127.718" x="43.32" y="65.01" filterUnits="userSpaceOnUse"><feGaussianBlur xmlns="http://www.w3.org/2000/svg" stdDeviation="1.346"/></filter></defs><path d="M65.138 68.145c-7.287-.091-12.184 1.545-14.697 4.56-2.638 3.142-3.99 8.295-3.99 15.457v65.301c0 7.161 1.352 12.314 3.99 15.455 2.513 3.016 7.409 4.562 14.697 4.562h17.307l22.825 16.111 22.826-16.111h62.766c7.288 0 12.184-1.546 14.697-4.562 2.638-3.141 3.99-8.294 3.99-15.455V88.162c0-7.162-1.352-12.315-3.99-15.457-2.513-3.015-7.409-4.56-14.697-4.56H65.138z" opacity=".1" filter="url(#e)"/><linearGradient id="f" x1=".631" x2=".636" y1=".775" y2=".141" gradientTransform="matrix(163.099 0 0 89.541 46.451 99.032)" gradientUnits="userSpaceOnUse"><stop offset="0%" stop-opacity=".996" stop-color="#edd2f3"/><stop offset="100%" stop-color="#f5eef7"/></linearGradient><path fill="url(#f)" d="M46.451 99.032v53.411c0 7.162 1.351 12.315 3.989 15.456 2.513 3.015 7.41 4.561 14.698 4.561h17.307l22.824 16.113 22.827-16.113h62.766c7.288 0 12.185-1.546 14.698-4.561 2.638-3.141 3.989-8.294 3.989-15.456V99.032H46.451z"/><linearGradient id="g" x1=".361" x2=".361" y1=".01" y2=".967" gradientTransform="matrix(163.099 0 0 122.164 46.451 66.409)" gradientUnits="userSpaceOnUse"><stop offset="0%" stop-color="#fdfdfb"/><stop offset="100%" stop-color="#f0e9df"/></linearGradient><path fill="url(#g)" d="M65.138 66.412c-7.287-.091-12.184 1.629-14.697 4.644-2.638 3.141-3.99 8.295-3.99 15.456v63.419l35.994 22.529 22.825 16.112 22.825-16.112 81.454-61.85V86.512c0-7.161-1.352-12.315-3.99-15.456-2.513-3.015-7.409-4.644-14.696-4.644H65.138z"/><g opacity=".1"><linearGradient id="h" x1=".612" x2=".714" y1=".365" y2=".498" gradientTransform="matrix(81.454 0 0 61.85 128.095 110.61)" gradientUnits="userSpaceOnUse"><stop offset="0%" stop-color="#d4a1c8"/><stop offset="100%" stop-opacity="0" stop-color="#d4a1c8"/></linearGradient><path fill="url(#h)" d="M209.549 110.61l-81.454 61.85h62.768c7.287 0 12.183-1.545 14.696-4.561 2.638-3.141 3.99-8.294 3.99-15.456V110.61z"/></g><g opacity=".1"><linearGradient id="i" x1=".368" x2=".178" y1=".105" y2=".353" gradientTransform="matrix(35.994 0 0 22.704 46.451 149.931)" gradientUnits="userSpaceOnUse"><stop offset="0%" stop-opacity=".996" stop-color="#e6a240"/><stop offset="100%" stop-opacity=".275" stop-color="#eab261"/></linearGradient><path fill="url(#i)" d="M46.451 149.931v2.512c0 7.162 1.352 12.315 3.99 15.456 2.513 3.016 7.459 5.414 14.697 4.561h17.307l-35.994-22.529z"/></g><path fill="#FFF" d="M65.138 66.412c-7.287-.091-12.185 1.629-14.698 4.645-2.638 3.141-3.989 8.294-3.989 15.456v2.038c0-7.161 1.351-12.314 3.989-15.455 2.513-3.016 7.411-4.736 14.698-4.645h125.724c7.288 0 12.185 1.629 14.698 4.645 2.638 3.141 3.989 8.294 3.989 15.455v-2.038c0-7.162-1.351-12.315-3.989-15.456-2.513-3.015-7.41-4.645-14.698-4.645H65.138z"/><path fill="#B962A7" d="M121.114 77.611c2.116 3.069 3.917 6.086 5.425 9.075a59.397 59.397 0 0 1 3.699 9.125 56.473 56.473 0 0 1 2.17 9.47c.45 3.227.642 6.638.642 10.209 0 3.598-.192 7.005-.642 10.259-.449 3.228-1.191 6.352-2.17 9.421a57.793 57.793 0 0 1-3.699 9.075c-1.508 2.99-3.309 6.029-5.425 9.125h11.147a75.71 75.71 0 0 0 5.277-8.78 57.013 57.013 0 0 0 3.65-8.976 56.548 56.548 0 0 0 2.17-9.569c.476-3.333.691-6.847.691-10.604 0-3.783-.215-7.324-.691-10.604a55.391 55.391 0 0 0-2.17-9.519 55.514 55.514 0 0 0-3.65-8.928 75.784 75.784 0 0 0-5.277-8.779h-11.147zm-46.61 15.783v12.626h12.627V93.394H74.504zM96.6 110.755v9.47h22.097v-9.47H96.6zM74.701 124.96v12.479h5.574c0 1.126-.156 1.657-.444 2.811-.288 1.154-.714 2.298-1.233 3.453-.519 1.154-1.104 2.305-1.825 3.403a30.96 30.96 0 0 1-2.269 3.107h7.941c.721-.985 1.396-2.009 1.973-3.107a21.227 21.227 0 0 0 1.48-3.65c.403-1.295.686-2.693.887-4.242.231-1.548.346-3.292.346-5.178v-9.076h-12.43z" opacity=".58"/></svg>

<svg xmlns="http://www.w3.org/2000/svg" style="isolation:isolate" width="256" height="256" viewBox="0 0 256 256">
 <defs>
  <filter id="LQMdg8nSI9FnCI28WAl9N1Yfu5k03Pun" width="270.648" height="254.338" x="-7.32" y="2.95" filterUnits="userSpaceOnUse">
   <feGaussianBlur xmlns="http://www.w3.org/2000/svg" in="SourceGraphic" stdDeviation="4.294"/>
   <feOffset xmlns="http://www.w3.org/2000/svg" dx="0" dy="4" result="pf_100_offsetBlur"/>
   <feFlood xmlns="http://www.w3.org/2000/svg" flood-opacity=".4"/>
   <feComposite xmlns="http://www.w3.org/2000/svg" in2="pf_100_offsetBlur" operator="in" result="pf_100_dropShadow"/>
   <feBlend xmlns="http://www.w3.org/2000/svg" in="SourceGraphic" in2="pf_100_dropShadow" mode="normal"/>
  </filter>
 </defs>
 <g filter="url(#LQMdg8nSI9FnCI28WAl9N1Yfu5k03Pun)">
  <path fill="#9B33AE" d="M 165.685 11.947 C 239.74 11.947 250.324 22.504 250.324 96.491 L 250.324 155.742 C 250.324 229.728 239.74 240.285 165.685 240.285 L 90.315 240.285 C 16.26 240.285 5.676 229.728 5.676 155.742 L 5.676 96.491 C 5.676 22.504 16.26 11.947 90.315 11.947 L 165.685 11.947 Z"/>
 </g>
 <g opacity=".4">
  <linearGradient id="_lgradient_53" x1=".517" x2=".517" y1="0" y2="1">
   <stop offset="0%" style="stop-color:rgb(255,255,255)"/>
   <stop offset="12.5%" stop-opacity=".098" style="stop-color:rgb(255,255,255)"/>
   <stop offset="92.5%" stop-opacity=".098" style="stop-color:rgb(0,0,0)"/>
   <stop offset="100%" stop-opacity=".498" style="stop-color:rgb(0,0,0)"/>
  </linearGradient>
  <path fill="none" stroke="url(#_lgradient_53)" stroke-linecap="round" stroke-linejoin="round" stroke-width="4.077" d="M 165.685 11.947 C 239.74 11.947 250.324 22.504 250.324 96.491 L 250.324 155.742 C 250.324 229.728 239.74 240.285 165.685 240.285 L 90.315 240.285 C 16.26 240.285 5.676 229.728 5.676 155.742 L 5.676 96.491 C 5.676 22.504 16.26 11.947 90.315 11.947 L 165.685 11.947 Z" vector-effect="non-scaling-stroke"/>
 </g>
 <g opacity=".1">
  <path fill="#FFFFFF" d="M 249.643 83.58 L 44.234 236.61 C 55.796 238.921 70.66 239.629 89.757 239.629 L 165.127 239.629 C 239.182 239.629 249.766 229.071 249.766 155.085 L 249.766 95.834 C 249.766 91.531 249.725 87.464 249.643 83.58 L 249.643 83.58 Z"/>
 </g>
 <g>
  <defs>
   <filter id="AqaOxh1RQtlkTH43tNMIHNOLmkhheG8y" width="213.246" height="171.597" x="21.38" y="43.07" filterUnits="userSpaceOnUse">
    <feGaussianBlur xmlns="http://www.w3.org/2000/svg" stdDeviation="10.766"/>
   </filter>
  </defs>
  <g opacity=".2" filter="url(#AqaOxh1RQtlkTH43tNMIHNOLmkhheG8y)">
   <linearGradient id="_lgradient_54" x1=".361" x2=".856" y1=".004" y2=".714" gradientTransform="matrix(163.099,0,0,121.45,46.451,68.142)" gradientUnits="userSpaceOnUse">
    <stop offset="0%" stop-opacity="0" style="stop-color:rgb(0,0,0)"/>
    <stop offset="67.026%" style="stop-color:rgb(0,0,0)"/>
    <stop offset="100%" stop-opacity="0" style="stop-color:rgb(0,0,0)"/>
   </linearGradient>
   <path fill="url(#_lgradient_54)" d="M 65.138 68.145 C 57.851 68.054 52.954 69.69 50.441 72.705 C 47.803 75.847 46.451 81 46.451 88.162 L 46.451 150.95 L 46.451 153.463 C 46.451 160.624 47.803 165.777 50.441 168.918 C 52.954 171.934 57.85 173.48 65.138 173.48 L 82.445 173.48 L 105.27 189.591 L 128.096 173.48 L 190.862 173.48 C 198.15 173.48 203.046 171.934 205.559 168.918 C 208.197 165.777 209.549 160.624 209.549 153.463 L 209.549 114.783 L 209.549 88.162 C 209.549 81 208.197 75.847 205.559 72.705 C 203.046 69.69 198.15 68.145 190.862 68.145 L 178.7 68.145 L 98.227 68.145 L 65.138 68.145 Z"/>
  </g>
  <defs>
   <filter id="xXizlLCCflwMLU1rp0awAPWFEebk6fGb" width="169.367" height="127.718" x="43.32" y="65.01" filterUnits="userSpaceOnUse">
    <feGaussianBlur xmlns="http://www.w3.org/2000/svg" stdDeviation="1.346"/>
   </filter>
  </defs>
  <g opacity=".1" filter="url(#xXizlLCCflwMLU1rp0awAPWFEebk6fGb)">
   <path d="M 65.138 68.145 C 57.851 68.054 52.954 69.69 50.441 72.705 C 47.803 75.847 46.451 81 46.451 88.162 L 46.451 150.95 L 46.451 153.463 C 46.451 160.624 47.803 165.777 50.441 168.918 C 52.954 171.934 57.85 173.48 65.138 173.48 L 82.445 173.48 L 105.27 189.591 L 128.096 173.48 L 190.862 173.48 C 198.15 173.48 203.046 171.934 205.559 168.918 C 208.197 165.777 209.549 160.624 209.549 153.463 L 209.549 114.783 L 209.549 88.162 C 209.549 81 208.197 75.847 205.559 72.705 C 203.046 69.69 198.15 68.145 190.862 68.145 L 178.7 68.145 L 98.227 68.145 L 65.138 68.145 Z"/>
  </g>
  <linearGradient id="_lgradient_55" x1=".631" x2=".636" y1=".775" y2=".141" gradientTransform="matrix(163.099,0,0,89.541,46.451,99.032)" gradientUnits="userSpaceOnUse">
   <stop offset="0%" stop-opacity=".996" style="stop-color:rgb(237,210,243)"/>
   <stop offset="100%" style="stop-color:rgb(245,238,247)"/>
  </linearGradient>
  <path fill="url(#_lgradient_55)" d="M 46.451 99.032 L 46.451 152.443 C 46.451 159.605 47.802 164.758 50.44 167.899 C 52.953 170.914 57.85 172.46 65.138 172.46 L 82.445 172.46 L 105.269 188.573 L 128.096 172.46 L 190.862 172.46 C 198.15 172.46 203.047 170.914 205.56 167.899 C 208.198 164.758 209.549 159.605 209.549 152.443 L 209.549 99.032 L 46.451 99.032 Z"/>
  <linearGradient id="_lgradient_56" x1=".361" x2=".361" y1=".01" y2=".967" gradientTransform="matrix(163.099,0,0,122.164,46.451,66.409)" gradientUnits="userSpaceOnUse">
   <stop offset="0%" style="stop-color:rgb(253,253,251)"/>
   <stop offset="100%" style="stop-color:rgb(240,233,223)"/>
  </linearGradient>
  <path fill="url(#_lgradient_56)" d="M 65.138 66.412 C 57.851 66.321 52.954 68.041 50.441 71.056 C 47.803 74.197 46.451 79.351 46.451 86.512 L 46.451 149.931 L 82.445 172.46 L 105.27 188.572 L 128.095 172.46 L 128.095 172.46 L 209.549 110.61 L 209.549 86.512 C 209.549 79.351 208.197 74.197 205.559 71.056 C 203.046 68.041 198.15 66.412 190.863 66.412 L 178.7 66.412 L 98.227 66.412 L 65.138 66.412 Z"/>
  <g opacity=".1">
   <linearGradient id="_lgradient_57" x1=".612" x2=".714" y1=".365" y2=".498" gradientTransform="matrix(81.454,0,0,61.85,128.095,110.61)" gradientUnits="userSpaceOnUse">
    <stop offset="0%" style="stop-color:rgb(212,161,200)"/>
    <stop offset="100%" stop-opacity="0" style="stop-color:rgb(212,161,200)"/>
   </linearGradient>
   <path fill="url(#_lgradient_57)" d="M 209.549 110.61 L 128.095 172.46 L 190.863 172.46 C 198.15 172.46 203.046 170.915 205.559 167.899 C 208.197 164.758 209.549 159.605 209.549 152.443 L 209.549 110.61 Z"/>
  </g>
  <g opacity=".1">
   <linearGradient id="_lgradient_58" x1=".368" x2=".178" y1=".105" y2=".353" gradientTransform="matrix(35.994,0,0,22.704,46.451,149.931)" gradientUnits="userSpaceOnUse">
    <stop offset="0%" stop-opacity=".996" style="stop-color:rgb(230,162,64)"/>
    <stop offset="100%" stop-opacity=".275" style="stop-color:rgb(234,178,97)"/>
   </linearGradient>
   <path fill="url(#_lgradient_58)" d="M 46.451 149.931 L 46.451 152.443 C 46.451 159.605 47.803 164.758 50.441 167.899 C 52.954 170.915 57.9 173.313 65.138 172.46 L 82.445 172.46 L 46.451 149.931 Z"/>
  </g>
  <path fill="#FFFFFF" d="M 65.138 66.412 C 57.851 66.321 52.953 68.041 50.44 71.057 C 47.802 74.198 46.451 79.351 46.451 86.513 L 46.451 88.551 C 46.451 81.39 47.802 76.237 50.44 73.096 C 52.953 70.08 57.851 68.36 65.138 68.451 L 98.227 68.451 L 178.7 68.451 L 190.862 68.451 C 198.15 68.451 203.047 70.08 205.56 73.096 C 208.198 76.237 209.549 81.39 209.549 88.551 L 209.549 86.513 C 209.549 79.351 208.198 74.198 205.56 71.057 C 203.047 68.042 198.15 66.412 190.862 66.412 L 178.7 66.412 L 98.227 66.412 L 65.138 66.412 Z"/>
  <g opacity=".58">
   <path fill="#B962A7" d="M 121.114 77.611 C 123.23 80.68 125.031 83.697 126.539 86.686 C 128.047 89.676 129.286 92.742 130.238 95.811 C 131.217 98.88 131.959 102.026 132.408 105.281 C 132.858 108.508 133.05 111.919 133.05 115.49 C 133.05 119.088 132.858 122.495 132.408 125.749 C 131.959 128.977 131.217 132.101 130.238 135.17 C 129.286 138.239 128.047 141.282 126.539 144.245 C 125.031 147.235 123.23 150.274 121.114 153.37 L 132.261 153.37 C 134.298 150.433 136.056 147.501 137.538 144.59 C 139.02 141.68 140.235 138.683 141.188 135.614 C 142.167 132.545 142.908 129.352 143.358 126.045 C 143.834 122.712 144.049 119.198 144.049 115.441 C 144.049 111.658 143.834 108.117 143.358 104.837 C 142.908 101.53 142.167 98.36 141.188 95.318 C 140.235 92.249 139.02 89.274 137.538 86.39 C 136.056 83.48 134.298 80.548 132.261 77.611 L 121.114 77.611 Z M 74.504 93.394 L 74.504 106.02 L 87.131 106.02 L 87.131 93.394 L 74.504 93.394 Z M 96.6 110.755 L 96.6 120.225 L 118.697 120.225 L 118.697 110.755 L 96.6 110.755 Z M 74.701 124.96 L 74.701 137.439 L 80.275 137.439 C 80.275 138.565 80.119 139.096 79.831 140.25 C 79.543 141.404 79.117 142.548 78.598 143.703 C 78.079 144.857 77.494 146.008 76.773 147.106 C 76.081 148.204 75.311 149.228 74.504 150.213 L 82.445 150.213 C 83.166 149.228 83.841 148.204 84.418 147.106 C 84.994 146.008 85.494 144.779 85.898 143.456 C 86.301 142.161 86.584 140.763 86.785 139.214 C 87.016 137.666 87.131 135.922 87.131 134.036 L 87.131 124.96 L 74.701 124.96 Z"/>
  </g>
 </g>
</svg>
